src/icons/search.svg

<svg height="20" viewBox="0 0 20 20" width="20" xmlns="http://www.w3.org/2000/svg"><path d="m4 8.5c0-2.481 2.019-4.5 4.5-4.5s4.5 2.019 4.5 4.5-2.019 4.5-4.5 4.5a4.505 4.505 0 0 1 -4.5-4.5m13.707 7.793-3.965-3.966a6.456 6.456 0 0 0 1.258-3.827c0-3.584-2.916-6.5-6.5-6.5a6.508 6.508 0 0 0 -6.5 6.5c0 3.584 2.916 6.5 6.5 6.5a6.455 6.455 0 0 0 3.828-1.259l3.965 3.966a.997.997 0 0 0 1.414 0 .999.999 0 0 0 0-1.414" fill="#c1cbd4" fill-rule="evenodd"/></svg>

<svg width="20" height="20" viewBox="0 0 20 20" xmlns="http://www.w3.org/2000/svg"><title>Search</title><path d="M4 8.5C4 6.019 6.019 4 8.5 4S13 6.019 13 8.5 10.981 13 8.5 13A4.505 4.505 0 0 1 4 8.5m13.707 7.793l-3.965-3.966A6.456 6.456 0 0 0 15 8.5C15 4.916 12.084 2 8.5 2A6.508 6.508 0 0 0 2 8.5C2 12.084 4.916 15 8.5 15a6.455 6.455 0 0 0 3.828-1.259l3.965 3.966a.997.997 0 0 0 1.414 0 .999.999 0 0 0 0-1.414" fill="#C1CBD4" fill-rule="evenodd"/></svg>
